X:1
T: Lady Charlotte Cadogan's Reel
C:R. Mackintosh
R:Reel
Q: 232
K:Em
M:4/4
L:1/8
|:B|G2 BF GE EG|Fd Ad FD AF|GB FB GE eg|af bf ge eB|
G2 BF GE EG|Fd Ad FD AF|EG FA GB Ac|BG AF GE Ef|
a1/2g1/2f1/2e1/2 be Be ge|de fg af df|ge be Be ge|Bb fa ge ef|
a1/2g1/2f1/2e1/2 be Be ge|da df Ad FD|GB Ee ^df Ba|bg af ge e:|
